X:73
T:Gan Ainm
R:Reel
S:James Kelly, Dublin (fiddle)
D:Tape of concert ('You and Yours'), Newtownards, 1983
N:As played
Z:Bernie Stocks
M:4/4
K:D
dc || BE~E2 ~B2AF | DF~F2 DEFA | BE~E2 BdAF | DFAF EBdc | BE~E2 BdAF |
DF~F2 DEFA | B2~B2 {d}BAFA |1 (3BcdAF EBdc :|2 (3BcdAF EFGA ||
ef{a}ge Be{a}ge | df~f2 afdf | e2ge Bege | dBAF EFGA |
ef{a}ge Be{a}ge | df~f2 afdf | gf(3efg gbec | dBAF EFGA ||
